; generated by Slic3r 1.2.9 on 2016-06-13 at 17:00:48

; external perimeters extrusion width = 0.50mm
; perimeters extrusion width = 0.50mm
; infill extrusion width = 0.50mm
; solid infill extrusion width = 0.50mm
; top infill extrusion width = 0.50mm

M107
M190 S58 ; set bed temperature
M104 S200 ; set temperature
G28 ; home all axes
G29; auto level
G1 Z5 F5000 ; lift nozzle

M109 S200 ; wait for temperature to be reached
G21 ; set units to millimeters
G90 ; use absolute coordinates
M82 ; use absolute distances for extrusion
G92 E0
G1 E-6.00000 F3600.00000
G92 E0
G1 Z0.500 F3600.000
G1 X-21.673 Y-0.000 F3600.000
G1 Z0.350 F3600.000
G1 E6.00000 F3600.00000
G1 X-21.673 Y-25.254 E7.56138 F840.000
G1 X-21.274 Y-28.672 E7.77412
G1 X-20.100 Y-31.906 E7.98686
G1 X-18.212 Y-34.783 E8.19960
G1 X-15.713 Y-37.149 E8.41234
G1 X-12.737 Y-38.875 E8.62508
G1 X-9.443 Y-39.871 E8.83782
G1 X-6.823 Y-40.104 E9.00046
G1 X6.827 Y-40.104 E9.84440
G1 X10.245 Y-39.705 E10.05714
G1 X13.479 Y-38.531 E10.26988 F840.000
G1 X16.356 Y-36.643 E10.48262
G1 X18.721 Y-34.144 E10.69536
G1 X20.448 Y-31.168 E10.90810
G1 X21.444 Y-27.874 E11.12084
G1 X21.677 Y-25.254 E11.28348
G1 X21.677 Y25.254 E14.40624
G1 X21.278 Y28.672 E14.61898
G1 X20.103 Y31.906 E14.83172
G1 X18.216 Y34.783 E15.04446
G1 X15.717 Y37.148 E15.25720
G1 X12.741 Y38.875 E15.46994
G1 X9.447 Y39.871 E15.68268
G1 X6.827 Y40.104 E15.84533
G1 X-6.823 Y40.104 E16.68926
G1 X-10.241 Y39.705 E16.90200
G1 X-13.475 Y38.531 E17.11474
G1 X-16.352 Y36.643 E17.32748
G1 X-18.717 Y34.144 E17.54022
G1 X-20.444 Y31.168 E17.75296
G1 X-21.440 Y27.874 E17.96570
G1 X-21.673 Y25.255 E18.12826
G1 X-21.673 Y0.060 E19.68602
G1 X-21.248 Y-0.000 F3600.000
G1 X-21.248 Y-25.254 E21.24740 F840.000
G1 X-20.849 Y-28.622 E21.45706
G1 X-19.675 Y-31.803 E21.66673
G1 X-17.791 Y-34.623 E21.87639
G1 X-15.301 Y-36.925 E22.08605
G1 X-12.342 Y-38.581 E22.29572
G1 X-9.078 Y-39.502 E22.50538
G1 X-6.823 Y-39.679 E22.64525
G1 X6.827 Y-39.679 E23.48918
G1 X10.195 Y-39.280 E23.69884
G1 X13.376 Y-38.106 E23.90851 F840.000
G1 X16.196 Y-36.222 E24.11817
G1 X18.497 Y-33.732 E24.32784
G1 X20.154 Y-30.773 E24.53750
G1 X21.074 Y-27.509 E24.74716
G1 X21.252 Y-25.254 E24.88703
G1 X21.252 Y25.254 E28.00978
G1 X20.853 Y28.622 E28.21945
G1 X19.679 Y31.803 E28.42911
G1 X17.795 Y34.623 E28.63878
G1 X15.305 Y36.925 E28.84844
G1 X12.346 Y38.581 E29.05811
G1 X9.082 Y39.502 E29.26777
G1 X6.827 Y39.679 E29.40764
G1 X-6.823 Y39.679 E30.25157
G1 X-10.191 Y39.280 E30.46123
G1 X-13.372 Y38.106 E30.67090
G1 X-16.192 Y36.222 E30.88056
G1 X-18.494 Y33.732 E31.09023
G1 X-20.150 Y30.773 E31.29989
G1 X-21.071 Y27.509 E31.50955
G1 X-21.248 Y25.255 E31.64933
G1 X-21.248 Y0.060 E33.20709
G1 F2880
G1 X-21.248 Y-4.740 E27.50709
G1 E27.20709 F3600.00000
G92 E0
G1 Z0.850 F3600.000
G1 X-6.573 Y-25.004 F3600.000
G1 Z0.350 F3600.000
G1 E6.00000 F3600.00000
G1 X6.577 Y-25.004 E6.81302 F441.000
G1 X6.577 Y25.004 E9.90486
G1 X-6.573 Y25.004 E10.71788
G1 X-6.573 Y-24.944 E13.80601
G1 X2.526 Y-22.755 F3600.000
G1 X2.703 Y-23.176 E13.83430 F630.000
G1 X2.996 Y-23.560 E13.86418
G1 X3.378 Y-23.854 E13.89394
G1 X3.821 Y-24.041 E13.92368
G1 X4.201 Y-24.091 E13.94739
G1 X4.301 Y-24.104 E13.95362 F630.000
G1 X4.782 Y-24.042 E13.98364
G1 X5.231 Y-23.854 E14.01371
G1 X5.616 Y-23.560 E14.04363
G1 X5.907 Y-23.176 E14.07346
G1 X6.095 Y-22.729 E14.10343
G1 X6.153 Y-22.252 E14.13310
G1 X6.082 Y-21.730 E14.16572
G1 X5.740 Y-21.174 E14.20610
G1 X5.637 Y-20.958 E14.22088
G1 X5.215 Y-20.635 E14.25372
G1 X4.478 Y-20.460 E14.30052
G1 X3.984 Y-20.393 E14.33133
G1 X3.378 Y-20.648 E14.37199
G1 X2.997 Y-20.942 E14.40176
G1 X2.703 Y-21.322 E14.43146
G1 X2.518 Y-21.752 E14.46037
G1 X2.450 Y-22.256 E14.49183
G1 X2.517 Y-22.695 E14.51929
G1 X-2.473 Y-22.254 F3600.000
G1 X-2.535 Y-21.773 E14.54931 F630.000
G1 X-2.721 Y-21.328 E14.57911
G1 X-3.015 Y-20.944 E14.60901
G1 X-3.399 Y-20.650 E14.63893
G1 X-3.846 Y-20.464 E14.66883
G1 X-4.325 Y-20.402 E14.69871
G1 X-4.804 Y-20.464 E14.72859
G1 X-5.253 Y-20.650 E14.75860
G1 X-5.651 Y-20.964 E14.78998
G1 X-5.929 Y-21.328 E14.81827
G1 X-6.115 Y-21.773 E14.84807
G1 X-6.177 Y-22.254 E14.87808
G1 X-6.115 Y-22.733 E14.90795
G1 X-5.929 Y-23.180 E14.93787
G1 X-5.635 Y-23.563 E14.96770
G1 X-5.250 Y-23.858 E14.99771
G1 X-4.779 Y-24.045 E15.02904
G1 X-4.325 Y-24.106 E15.05734 F630.000
G1 X-3.845 Y-24.041 E15.08727
G1 X-3.399 Y-23.856 E15.11714
G1 X-3.015 Y-23.563 E15.14704
G1 X-2.721 Y-23.180 E15.17686
G1 X-2.535 Y-22.733 E15.20678
G1 X-2.481 Y-22.314 E15.23295
G1 X-4.349 Y20.405 F3600.000
G1 X-3.845 Y20.464 E15.26427 F630.000
G1 X-3.397 Y20.650 E15.29429
G1 X-3.013 Y20.943 E15.32418
G1 X-2.719 Y21.326 E15.35401
G1 X-2.533 Y21.773 E15.38394
G1 X-2.471 Y22.254 E15.41393
G1 X-2.534 Y22.733 E15.44380
G1 X-2.719 Y23.180 E15.47373
G1 X-3.013 Y23.563 E15.50355
G1 X-3.397 Y23.856 E15.53345
G1 X-3.844 Y24.042 E15.56335
G1 X-4.323 Y24.104 E15.59323
G1 X-4.802 Y24.042 E15.62311
G1 X-5.249 Y23.856 E15.65301
G1 X-5.633 Y23.563 E15.68291
G1 X-5.927 Y23.180 E15.71273
G1 X-6.113 Y22.733 E15.74266
G1 X-6.175 Y22.254 E15.77253
G1 X-6.113 Y21.773 E15.80253
G1 X-5.927 Y21.326 E15.83246
G1 X-5.633 Y20.943 E15.86228
G1 X-5.249 Y20.650 E15.89218
G1 X-4.802 Y20.464 E15.92208
G1 X-4.408 Y20.413 E15.94665 F630.000
G1 X2.515 Y21.773 F3600.000
G1 X2.698 Y21.325 E15.97658 F630.000
G1 X2.993 Y20.940 E16.00657
G1 X3.376 Y20.647 E16.03636
G1 X3.833 Y20.460 E16.06688
G1 X4.767 Y20.458 E16.12464 F630.000
G1 X5.226 Y20.647 E16.15536
G1 X5.611 Y20.939 E16.18520
G1 X5.907 Y21.324 E16.21527
G1 X6.091 Y21.774 E16.24527
G1 X6.153 Y22.254 E16.27522
G1 X6.091 Y22.733 E16.30506
G1 X5.907 Y23.181 E16.33500
G1 X5.611 Y23.560 E16.36477
G1 X5.227 Y23.859 E16.39482
G1 X4.782 Y24.040 E16.42454
G1 X4.303 Y24.104 E16.45440
G1 X3.822 Y24.040 E16.48439
G1 X3.375 Y23.859 E16.51424
G1 X2.992 Y23.560 E16.54425
G1 X2.698 Y23.180 E16.57393
G1 X2.517 Y22.736 E16.60361
G1 X2.446 Y22.290 E16.63150
G1 X2.507 Y21.833 E16.66006
G1 F2880
G1 X2.698 Y21.325 E16.01587
G1 F2880
G1 X2.993 Y20.940 E15.43998
G1 F2880
G1 X3.376 Y20.647 E14.86780
G1 F2880
G1 X3.833 Y20.460 E14.28157
G1 E10.66006 F3600.00000
G92 E0
G1 Z0.850 F3600.000
G1 X3.702 Y24.516 F3600.000
G1 Z0.350 F3600.000
G1 E6.00000 F3600.00000
G1 X4.271 Y24.554 E6.07684 F420.000
G1 X4.901 Y24.516 E6.16174
G1 X5.382 Y24.753 F3600.000
G1 X5.160 Y24.531 E6.18556 F840.000
G1 X5.379 Y24.012 E6.22836
G1 X6.120 Y24.753 E6.30795
G1 X6.326 Y24.221 E6.35132
G1 X5.788 Y23.682 E6.40913
G1 X6.111 Y23.268 E6.44909
G1 X6.326 Y23.482 E6.47214
G1 F2880
G1 X6.111 Y23.268 E6.11188
G1 F2880
G1 X5.788 Y23.682 E5.48722
G1 F2880
G1 X6.326 Y24.221 E4.58356
G1 F2880
G1 X6.120 Y24.753 E3.90564
G1 F2880
G1 X5.379 Y24.012 E2.66160
G1 F2880
G1 X5.160 Y24.531 E1.99251
G1 F2880
G1 X5.382 Y24.753 E1.62010
G1 E0.47214 F3600.00000
G92 E0
G1 Z0.850 F3600.000
G1 X-3.724 Y24.517 F3600.000
G1 Z0.350 F3600.000
G1 E6.00000 F3600.00000
G1 X-4.292 Y24.554 E6.07663 F420.000
G1 X-4.922 Y24.517 E6.16153
G1 X-5.157 Y24.349 F3600.000
G1 X-5.393 Y24.113 E6.18468 F840.000
G1 X-5.428 Y24.753 E6.22913
G1 X-6.322 Y23.859 E6.31688
G1 X-6.322 Y24.533 E6.36366
G1 X-6.102 Y24.753 E6.38527
G1 X-3.244 Y24.753 F3600.000
G1 X-3.466 Y24.531 E6.40468 F840.000
G1 X-3.326 Y24.069 E6.43459
G1 X-2.642 Y24.753 E6.49452
G1 X-2.040 Y24.753 E6.53179
G1 X-2.983 Y23.810 E6.61438
G1 X-2.693 Y23.498 E6.64075
G1 X-1.438 Y24.753 E6.75063
G1 X-0.836 Y24.753 E6.78790
G1 X-2.457 Y23.132 E6.92986
G1 X-2.287 Y22.700 E6.95860
G1 X-0.234 Y24.753 E7.13838
G1 X0.367 Y24.753 E7.17565
G1 X-2.218 Y22.168 E7.40207
G1 X-2.363 Y21.421 E7.44921
G1 X0.969 Y24.753 E7.74106
G1 X1.571 Y24.753 E7.77834
G1 X-6.322 Y16.860 E8.46966
G1 X-6.322 Y15.054 F3600.000
G1 X3.377 Y24.753 E9.31913 F840.000
G1 X2.775 Y24.753 E9.35641
G1 X-6.322 Y15.656 E10.15316
G1 X-6.322 Y16.258 E10.19044
G1 X2.173 Y24.753 E10.93447
G1 X2.367 Y23.141 F3600.000
G1 X-6.322 Y14.452 E11.69551 F840.000
G1 X-6.322 Y13.850 E11.73279
G1 X2.194 Y22.366 E12.47863
G1 X2.265 Y21.836 E12.51178
G1 X-6.322 Y13.248 E13.26387
G1 X-6.322 Y12.646 E13.30115
G1 X2.427 Y21.396 E14.06746
G1 X2.658 Y21.024 E14.09454
G1 X-6.322 Y12.045 E14.88100
G1 X-6.322 Y11.443 E14.91828
G1 X2.943 Y20.707 E15.72972
G1 X3.284 Y20.447 E15.75632
G1 X-6.322 Y10.841 E16.59765
G1 X-6.322 Y10.239 E16.63493
G1 X3.708 Y20.269 E17.51344
G1 X4.246 Y20.205 E17.54698
G1 X-6.322 Y9.637 E18.47258
G1 X-6.322 Y9.035 E18.50986
G1 X4.850 Y20.207 E19.48835
G1 X6.326 Y21.081 F3600.000
G1 X-6.322 Y8.433 E20.59610 F840.000
G1 X-6.322 Y7.831 E20.63338
G1 X6.326 Y20.479 E21.74113
G1 X6.326 Y19.877 E21.77841
G1 X-6.322 Y7.229 E22.88616
G1 X-6.322 Y6.628 E22.92344
G1 X6.326 Y19.275 E24.03119
G1 X6.326 Y18.673 E24.06847
G1 X-6.322 Y6.026 E25.17622
G1 X-6.322 Y5.424 E25.21350
G1 X6.326 Y18.072 E26.32125
G1 X6.326 Y17.470 E26.35852
G1 X-6.322 Y4.822 E27.46628
G1 X-6.322 Y4.220 E27.50355
G1 X6.326 Y16.868 E28.61131
G1 X6.326 Y16.266 E28.64858
G1 X-6.322 Y3.618 E29.75633
G1 X-6.322 Y3.016 E29.79361
G1 X6.326 Y15.664 E30.90136
G1 X6.326 Y15.062 E30.93864
G1 X-6.322 Y2.414 E32.04639
G1 X-6.322 Y1.812 E32.08367
G1 X6.326 Y14.460 E33.19142
G1 X6.326 Y13.858 E33.22870
G1 X-6.322 Y1.210 E34.33645
G1 X-6.322 Y0.609 E34.37373
G1 X6.326 Y13.256 E35.48148
G1 X6.326 Y12.655 E35.51876
G1 X-6.322 Y0.007 E36.62651
G1 X-6.322 Y-0.595 E36.66378
G1 X6.326 Y12.053 E37.77154
G1 X6.326 Y11.451 E37.80881
G1 X-6.322 Y-1.197 E38.91657
G1 X-6.322 Y-1.799 E38.95384
G1 X6.326 Y10.849 E40.06159
G1 X6.326 Y10.247 E40.09887
G1 X-6.322 Y-2.401 E41.20662
G1 X-6.322 Y-3.003 E41.24390
G1 X6.326 Y9.645 E42.35165
G1 X6.326 Y9.043 E42.38893
G1 X-6.322 Y-3.605 E43.49668
G1 X-6.322 Y-4.207 E43.53396
G1 X6.326 Y8.441 E44.64171
G1 X6.326 Y7.839 E44.67899
G1 X-6.322 Y-4.809 E45.78674
G1 X-6.322 Y-5.410 E45.82402
G1 X6.326 Y7.237 E46.93177
G1 X6.326 Y6.636 E46.96904
G1 X-6.322 Y-6.012 E48.07680
G1 X-6.322 Y-6.614 E48.11407
G1 X6.326 Y6.034 E49.22183
G1 X6.326 Y5.432 E49.25910
G1 X-6.322 Y-7.216 E50.36685
G1 X-6.322 Y-7.818 E50.40413
G1 X6.326 Y4.830 E51.51188
G1 X6.326 Y4.228 E51.54916
G1 X-6.322 Y-8.420 E52.65691
G1 X-6.322 Y-9.022 E52.69419
G1 X6.326 Y3.626 E53.80194
G1 X6.326 Y3.024 E53.83922
G1 X-6.322 Y-9.624 E54.94697
G1 X-6.322 Y-10.226 E54.98425
G1 X6.326 Y2.422 E56.09200
G1 X6.326 Y1.820 E56.12928
G1 X-6.322 Y-10.828 E57.23703
G1 X-6.322 Y-11.429 E57.27430
G1 X6.326 Y1.218 E58.38206
G1 X6.326 Y0.617 E58.41933
G1 X-6.322 Y-12.031 E59.52709
G1 X-6.322 Y-12.633 E59.56436
G1 X6.326 Y0.015 E60.67211
G1 X6.326 Y-0.587 E60.70939
G1 X-6.322 Y-13.235 E61.81714
G1 X-6.322 Y-13.837 E61.85442
G1 X6.326 Y-1.189 E62.96217
G1 X6.326 Y-1.791 E62.99945
G1 X-6.322 Y-14.439 E64.10720
G1 X-6.322 Y-15.041 E64.14448
G1 X6.326 Y-2.393 E65.25223
G1 X6.326 Y-2.995 E65.28951
G1 X-6.322 Y-15.643 E66.39726
G1 X-6.322 Y-16.245 E66.43453
G1 X6.326 Y-3.597 E67.54229
G1 X6.326 Y-4.199 E67.57956
G1 X-6.322 Y-16.847 E68.68732
G1 X-6.322 Y-17.448 E68.72459
G1 X6.326 Y-4.801 E69.83234
G1 X6.326 Y-5.402 E69.86962
G1 X-6.322 Y-18.050 E70.97737
G1 X-6.322 Y-18.652 E71.01465
G1 X6.326 Y-6.004 E72.12240
G1 X6.326 Y-6.606 E72.15968
G1 X-6.322 Y-19.254 E73.26743
G1 X-6.322 Y-19.856 E73.30471
G1 X6.326 Y-7.208 E74.41246
G1 X6.326 Y-7.810 E74.44974
G1 X-6.322 Y-20.458 E75.55749
G1 X-6.322 Y-21.060 E75.59476
G1 X6.326 Y-8.412 E76.70252
G1 X6.326 Y-9.014 E76.73979
G1 X-4.867 Y-20.207 E77.72013
G1 X-4.230 Y-20.172 E77.75963
G1 X6.326 Y-9.616 E78.68420
G1 X6.326 Y-10.218 E78.72148
G1 X-3.728 Y-20.271 E79.60203
G1 X-3.305 Y-20.451 E79.63046
G1 X6.326 Y-10.820 E80.47400
G1 X6.326 Y-11.421 E80.51128
G1 X-2.964 Y-20.712 E81.32496
G1 X-2.679 Y-21.028 E81.35135
G1 X6.326 Y-12.023 E82.14006
G1 X6.326 Y-12.625 E82.17734
G1 X-2.449 Y-21.400 E82.94586
G1 X-2.285 Y-21.838 E82.97482
G1 X6.326 Y-13.227 E83.72897
G1 X6.326 Y-13.829 E83.76625
G1 X-2.223 Y-22.378 E84.51504
G1 X-2.391 Y-23.147 E84.56377
G1 X6.326 Y-14.431 E85.32719
G1 X6.326 Y-15.033 E85.36447
G1 X-3.394 Y-24.753 E86.21580
G1 X-2.792 Y-24.753 E86.25308
G1 X6.326 Y-15.635 E87.05170
G1 X6.326 Y-16.237 E87.08897
G1 X-2.191 Y-24.753 E87.83488
G1 X-1.589 Y-24.753 E87.87215
G1 X6.326 Y-16.838 E88.56534
G1 X6.326 Y-21.052 F3600.000
G1 X6.075 Y-21.303 E88.58735 F840.000
G1 X5.861 Y-20.915 E88.61480
G1 X6.326 Y-20.450 E88.65553
G1 X6.326 Y-19.848 E88.69280
G1 X5.551 Y-20.622 E88.76063
G1 X5.183 Y-20.389 E88.78764
G1 X6.326 Y-19.246 E88.88770
G1 X6.326 Y-18.644 E88.92498
G1 X4.697 Y-20.273 E89.06763
G1 X4.189 Y-20.179 E89.09962
G1 X6.326 Y-18.042 E89.28675
G1 X6.326 Y-17.440 E89.32403
G1 X3.478 Y-20.288 E89.57345
G1 X2.337 Y-21.429 F3600.000
G1 X-0.987 Y-24.753 E89.86458 F840.000
G1 X-0.385 Y-24.753 E89.90186
G1 X2.197 Y-22.172 E90.12794
G1 X2.275 Y-22.695 E90.16070
G1 X0.217 Y-24.753 E90.34097
G1 X0.819 Y-24.753 E90.37824
G1 X2.441 Y-23.131 E90.52034
G1 X2.677 Y-23.497 E90.54731
G1 X1.421 Y-24.753 E90.65734
G1 X2.023 Y-24.753 E90.69462
G1 X2.967 Y-23.809 E90.77734
G1 X3.310 Y-24.067 E90.80395
G1 X2.625 Y-24.753 E90.86402
G1 X3.227 Y-24.753 E90.90129
G1 X3.448 Y-24.531 E90.92071
G1 F2880
G1 X3.227 Y-24.753 E90.54840
G1 F2880
G1 X2.625 Y-24.753 E89.83364
G1 F2880
G1 X3.310 Y-24.067 E88.68198
G1 F2880
G1 X2.967 Y-23.809 E88.17160
G1 F2880
G1 X2.023 Y-24.753 E86.58557
G1 F2880
G1 X1.421 Y-24.753 E85.87081
G1 F2880
G1 X1.808 Y-24.366 E85.22071
G1 E84.92071 F3600.00000
G92 E0
G1 Z0.850 F3600.000
G1 X-3.489 Y20.295 F3600.000
G1 Z0.350 F3600.000
G1 E6.00000 F3600.00000
G1 X-6.322 Y17.462 E6.24817 F840.000
G1 X-6.322 Y18.064 E6.28544
G1 X-4.230 Y20.155 E6.46864
G1 X-4.769 Y20.218 E6.50226
G1 X-6.322 Y18.665 E6.63823
G1 X-6.322 Y19.267 E6.67551
G1 X-5.201 Y20.388 E6.77366
G1 X-5.568 Y20.623 E6.80064
G1 X-6.322 Y19.869 E6.86667
G1 X-6.322 Y20.471 E6.90395
G1 X-5.880 Y20.913 E6.94262
G1 F2880
G1 X-6.322 Y20.471 E6.20103
G1 F2880
G1 X-6.322 Y19.869 E5.48627
G1 F2880
G1 X-5.568 Y20.623 E4.22009
G1 F2880
G1 X-5.201 Y20.388 E3.70276
G1 F2880
G1 X-6.322 Y19.267 E1.82078
G1 F2880
G1 X-6.322 Y18.780 E1.24262
G1 E0.94262 F3600.00000
G92 E0
G1 Z0.850 F3600.000
G1 X3.707 Y-24.517 F3600.000
G1 Z0.350 F3600.000
G1 E6.00000 F3600.00000
G1 X4.331 Y-24.554 E6.08422 F420.000
G1 X4.900 Y-24.517 E6.16095
G1 X5.135 Y-24.349 F3600.000
G1 X5.372 Y-24.113 E6.18457 F840.000
G1 X6.326 Y-23.846 F3600.000
G1 X5.419 Y-24.753 E6.27529 F840.000
G1 X6.106 Y-24.753 E6.32387
G1 X6.326 Y-24.533 E6.34589
G1 X-3.726 Y-24.517 F3600.000
G1 X-4.293 Y-24.555 E6.42241 F420.000
G1 X-4.917 Y-24.517 E6.50647
G1 X-5.176 Y-24.531 F3600.000
G1 X-5.397 Y-24.753 E6.52973 F840.000
G1 X-6.118 Y-24.753 E6.58319
G1 X-5.388 Y-24.022 E6.65983
G1 X-5.794 Y-23.708 E6.69794
G1 X-6.322 Y-24.236 E6.75332
G1 X-6.322 Y-23.515 E6.80678
G1 X-6.107 Y-23.301 E6.82928
M104 S190 ; set temperature
G1 F2880
G1 X-6.322 Y-23.515 E6.46901
G1 F2880
G1 X-6.322 Y-24.236 E5.61304
G1 F2880
G1 X-5.794 Y-23.708 E4.72627
G1 F2880
G1 X-5.388 Y-24.022 E4.11609
G1 F2880
G1 X-6.118 Y-24.753 E2.88910
G1 F2880
G1 X-5.397 Y-24.753 E2.03312
G1 F2880
G1 X-5.176 Y-24.531 E1.66071
G1 E0.82928 F3600.00000
G92 E0
G1 Z0.850 F3600.000
G1 X6.577 Y25.004 F3600.000
G1 Z0.550 F3600.000
G1 E6.00000 F3600.00000
G1 X-6.573 Y25.004 E6.49977 F1260.000
G1 X-6.573 Y-25.004 E8.40039
G1 X6.577 Y-25.004 E8.90016
G1 X6.577 Y24.944 E10.79850
G1 X4.014 Y-20.393 F3600.000
G1 X3.380 Y-20.647 E10.82446 F1800.000
G1 X2.997 Y-20.942 E10.84285
G1 X2.702 Y-21.324 E10.86118
G1 X2.516 Y-21.772 E10.87965
G1 X2.451 Y-22.254 E10.89813
G1 X2.516 Y-22.729 E10.91633
G1 X2.551 Y-22.817 E10.91996
G1 X2.702 Y-23.177 E10.93477
G1 X2.996 Y-23.560 E10.95315
G1 X3.378 Y-23.854 E10.97145
G1 X3.821 Y-24.041 E10.98973
G1 X4.207 Y-24.092 E11.00451
G1 X4.301 Y-24.104 E11.00813 F1800.000
G1 X4.782 Y-24.042 E11.02658
G1 X5.231 Y-23.854 E11.04507
G1 X5.615 Y-23.560 E11.06346
G1 X5.907 Y-23.176 E11.08180
G1 X6.094 Y-22.729 E11.10021
G1 X6.153 Y-22.254 E11.11838
G1 X6.094 Y-21.775 E11.13673
G1 X6.050 Y-21.666 E11.14119
G1 X5.731 Y-21.156 E11.16407
G1 X5.636 Y-20.958 E11.17241
G1 X5.216 Y-20.636 E11.19255
G1 X4.507 Y-20.460 E11.22029
G1 X4.074 Y-20.401 E11.23691
G1 X-2.535 Y-21.773 F3600.000
G1 X-2.721 Y-21.328 E11.25524 F1800.000
